src/images/svg/payment-methods/payment-jeton.svg

<svg width="128" height="80" viewBox="0 0 128 80" fill="none" xmlns="http://www.w3.org/2000/svg">
<path d="M34.482 26V54H33.4686V26H34.482ZM48.2991 45.1506C49.1548 45.1506 49.8484 44.4923 49.8484 43.6803V28.8851H56.0262V43.6803C56.1266 46.3639 54.6752 48.8854 52.2416 50.2554C51.1507 50.8696 49.9404 51.2085 48.7178 51.272L48.4355 51.2818H48.153C46.835 51.259 45.5217 50.9168 44.3469 50.2554C41.9133 48.8854 40.4619 46.3639 40.5623 43.6803H46.7498C46.7498 44.4923 47.4435 45.1506 48.2991 45.1506ZM99.0658 35.247C100.06 35.6495 100.96 36.234 101.716 36.967L101.736 36.9762C102.506 37.7234 103.109 38.6103 103.509 39.5839C104.353 41.6959 104.353 44.028 103.509 46.14C102.713 48.1042 101.109 49.6764 99.0658 50.4954C98.143 50.8495 97.1736 51.0518 96.1974 51.1024L95.8719 51.1136H95.5461C94.4604 51.0949 93.3775 50.8888 92.3522 50.4954C91.3462 50.0946 90.4351 49.5067 89.6725 48.7662C88.9147 48.0065 88.3191 47.1147 87.9186 46.14C87.4902 45.0938 87.2753 43.9798 87.2852 42.8573C87.2734 41.7378 87.4884 40.6265 87.9186 39.5839C88.3193 38.6148 88.915 37.7291 89.6725 36.9762C90.4351 36.2357 91.3462 35.6478 92.3522 35.247C94.5029 34.409 96.9151 34.409 99.0658 35.247ZM66.2965 34.5812C67.4401 34.5649 68.5758 34.7628 69.6387 35.1638C70.6087 35.5367 71.4779 36.1119 72.1819 36.8468V36.8375C72.8832 37.581 73.4171 38.4526 73.7507 39.3989C74.1154 40.4614 74.2932 41.5736 74.2769 42.6909V43.4676C74.2681 43.667 74.2253 43.8638 74.1502 44.0502L73.9748 44.3738H63.2563C63.3937 45.013 63.7337 45.597 64.2307 46.0476C64.5458 46.3343 64.9164 46.5603 65.3221 46.7133C65.7434 46.8737 66.1933 46.9553 66.6473 46.9538L66.8745 46.9616L67.1007 46.9542C67.7015 46.9141 68.2815 46.7135 68.7715 46.3712L69.0151 46.1678L73.5558 47.3699L73.0686 48.0542C72.6354 48.6669 72.0949 49.2048 71.4706 49.6447C70.8264 50.1136 70.1055 50.4791 69.3366 50.7266C68.5483 50.9588 67.7355 51.085 66.9212 51.1057L66.5723 51.1081C65.5255 51.096 64.4818 50.9098 63.4902 50.5509C62.4921 50.1844 61.586 49.6237 60.83 48.9049C60.0501 48.1544 59.4342 47.2651 59.0176 46.288C58.5412 45.1758 58.3059 43.9838 58.3258 42.7834C58.3138 41.641 58.5356 40.5074 58.9786 39.4452C59.3847 38.4897 59.9801 37.6171 60.7326 36.8745C61.4577 36.1632 62.3258 35.5972 63.2855 35.21C64.2318 34.8028 65.2575 34.5886 66.2965 34.5812ZM28.236 44.8177C26.7696 47.7108 24.0547 49.8595 20.7923 50.7088C17.5298 51.5582 14.0396 51.0251 11.2229 49.247L28.236 44.8177ZM82.3158 30.642V35.0528H85.4436V39.288H82.3158V45.391C82.2851 45.7219 82.3859 46.0517 82.5983 46.3157C82.8389 46.4845 83.1272 46.5785 83.4239 46.5869L83.5727 46.5839C83.7303 46.5983 83.8885 46.6059 84.0467 46.6065L84.284 46.6024L84.703 46.5469L85.4728 46.362V50.3012L85.0831 50.4491C84.9954 50.4491 84.8297 50.5324 84.3328 50.6618C84.003 50.7326 83.6684 50.7799 83.3318 50.8035L82.9947 50.8192C82.8821 50.8218 82.7695 50.8217 82.6568 50.819C81.2775 50.8786 79.9303 50.4125 78.9151 49.5244C77.956 48.5654 77.4525 47.2756 77.5217 45.9551V39.288H75.6703V35.0528H77.5217V30.642H82.3158ZM114.931 34.6454L115.223 34.6515C116.002 34.6839 116.777 34.8452 117.511 35.1361C118.267 35.4509 118.934 35.9291 119.46 36.5324C119.961 37.1319 120.338 37.8159 120.571 38.5482L120.63 38.5575C120.879 39.3367 121.004 40.1472 121 40.9617V50.6711H116.128V41.5443C116.152 40.8606 115.947 40.1873 115.543 39.6209C115.058 39.1892 114.447 38.9623 113.83 38.9378L113.661 38.9361L113.493 38.9444C112.877 38.9934 112.277 39.2443 111.811 39.6948C111.353 40.289 111.12 41.0122 111.149 41.7477V50.6618H106.276V35.0528H111.002V35.9128C111.33 35.6464 111.694 35.4225 112.084 35.247C112.985 34.8462 113.958 34.6452 114.931 34.6454ZM95.7041 38.9181C95.2345 38.9174 94.7687 38.9989 94.3302 39.1585C93.9122 39.3157 93.5362 39.5589 93.2291 39.8705C92.879 40.231 92.6045 40.6516 92.4204 41.1096C92.2014 41.6684 92.0956 42.2613 92.1086 42.8573C92.0975 43.4592 92.2032 44.0579 92.4204 44.6235C92.6059 45.0837 92.8802 45.507 93.2291 45.8719C93.5415 46.1864 93.9199 46.4353 94.34 46.6024C94.7761 46.7688 95.2377 46.852 95.6993 46.852L95.9299 46.845C96.314 46.8219 96.6951 46.741 97.0586 46.6024C97.4886 46.4336 97.8768 46.1816 98.1986 45.8626C98.5418 45.5039 98.8038 45.0822 98.9684 44.6235L98.9879 44.6328C99.1969 44.0622 99.2992 43.4613 99.29 42.8573C99.301 42.2592 99.1987 41.6641 98.9879 41.1004C98.8164 40.6462 98.5477 40.2306 98.1986 39.8798C97.8804 39.5655 97.495 39.3196 97.0683 39.1585C96.6332 38.999 96.1706 38.9175 95.7041 38.9181ZM27.437 33.7768C28.7259 35.6204 29.4045 37.7876 29.3858 40V40.5548L7.94883 46.1308C6.67529 44.3148 5.99716 42.1814 6.00001 40V39.3342L27.437 33.7768ZM66.3062 38.6592C65.8782 38.6544 65.4537 38.7331 65.059 38.8904C64.6942 39.0295 64.3628 39.2371 64.0846 39.5007C63.8243 39.7741 63.6136 40.0866 63.4609 40.4254C63.4339 40.5106 63.4111 40.597 63.3927 40.6843L63.4122 40.675H69.3366C69.3047 40.5397 69.2624 40.4068 69.2099 40.2774C69.0833 39.974 68.8945 39.6974 68.6545 39.4637C68.3751 39.2083 68.0435 39.01 67.6801 38.8811C67.3149 38.749 66.9299 38.6746 66.5403 38.6604L66.3062 38.6592ZM14.6073 29.3046C17.8133 28.4699 21.2421 28.9697 24.0363 30.679L7.23752 35.0528C8.72135 32.2297 11.4013 30.1394 14.6073 29.3046Z" fill="#FF671F"/>
</svg>

<svg width="128" height="80" fill="none" xmlns="http://www.w3.org/2000/svg"><path d="M34.482 26v28h-1.013V26h1.013zm13.817 19.15c.856 0 1.55-.658 1.55-1.47V28.885h6.177V43.68c.1 2.684-1.35 5.205-3.784 6.575a8.033 8.033 0 0 1-3.524 1.017l-.283.01h-.282a8.045 8.045 0 0 1-3.806-1.027c-2.434-1.37-3.885-3.891-3.785-6.575h6.188c0 .812.694 1.47 1.55 1.47zm50.767-9.903a8.253 8.253 0 0 1 2.65 1.72l.02.01a7.731 7.731 0 0 1 1.773 2.607 8.804 8.804 0 0 1 0 6.556c-.796 1.964-2.4 3.536-4.443 4.355a9.361 9.361 0 0 1-2.869.607l-.325.012h-.326a9.37 9.37 0 0 1-3.194-.619 8.2 8.2 0 0 1-2.68-1.729 8.059 8.059 0 0 1-1.753-2.626 8.46 8.46 0 0 1-.634-3.283 8.345 8.345 0 0 1 .634-3.273c.4-.97.996-1.855 1.754-2.608a8.2 8.2 0 0 1 2.68-1.729 9.279 9.279 0 0 1 6.713 0zm-32.77-.666a9.108 9.108 0 0 1 3.343.583c.97.373 1.839.948 2.543 1.683v-.01A7.248 7.248 0 0 1 73.75 39.4a9.698 9.698 0 0 1 .526 3.292v.777c-.009.199-.052.396-.127.582l-.175.324H63.256c.138.639.478 1.223.975 1.674.315.286.685.512 1.091.665.421.16.871.242 1.325.24l.227.009.227-.008c.6-.04 1.18-.24 1.67-.583l.244-.203 4.54 1.202-.486.684a6.634 6.634 0 0 1-1.598 1.59 7.564 7.564 0 0 1-2.134 1.083 9.396 9.396 0 0 1-2.416.379l-.349.002a9.38 9.38 0 0 1-3.082-.557 7.72 7.72 0 0 1-2.66-1.646 7.978 7.978 0 0 1-1.812-2.617 8.534 8.534 0 0 1-.692-3.505 8.435 8.435 0 0 1 .653-3.338 8.025 8.025 0 0 1 1.754-2.57 7.822 7.822 0 0 1 2.553-1.665 7.763 7.763 0 0 1 3.01-.629zm-38.06 10.237c-1.466 2.893-4.181 5.041-7.444 5.89-3.262.85-6.752.317-9.57-1.461l17.014-4.43zm54.08-14.176v4.41h3.128v4.236h-3.128v6.103c-.03.33.07.66.282.925.24.168.53.262.826.27l.149-.002c.157.014.316.022.474.022l.237-.004.419-.055.77-.185v3.94l-.39.147c-.088 0-.253.083-.75.213-.33.07-.665.118-1.001.142l-.337.015a7.182 7.182 0 0 1-.338 0 5.34 5.34 0 0 1-3.742-1.295 4.696 4.696 0 0 1-1.393-3.569v-6.667H75.67v-4.235h1.852v-4.411h4.794zm32.615 4.003.292.006a7.002 7.002 0 0 1 2.288.485 5.269 5.269 0 0 1 1.949 1.396c.501.6.878 1.284 1.111 2.016l.059.01c.249.779.374 1.59.37 2.404v9.71h-4.872v-9.128a3.12 3.12 0 0 0-.585-1.923 2.734 2.734 0 0 0-1.713-.683l-.169-.002-.168.008c-.616.05-1.216.3-1.682.75a3.155 3.155 0 0 0-.662 2.054v8.914h-4.873v-15.61h4.726v.86c.328-.266.692-.49 1.082-.665a7.007 7.007 0 0 1 2.847-.602zm-19.227 4.273c-.47 0-.935.08-1.374.24-.418.158-.794.4-1.1.712-.351.361-.626.782-.81 1.24a4.516 4.516 0 0 0-.311 1.747c-.011.602.094 1.2.311 1.767.186.46.46.883.81 1.248.311.314.69.563 1.11.73.436.167.898.25 1.36.25l.23-.007a3.811 3.811 0 0 0 1.129-.243c.43-.168.818-.42 1.14-.74.343-.358.605-.78.77-1.239l.019.01a4.94 4.94 0 0 0 .302-1.776 4.762 4.762 0 0 0-.302-1.757 3.47 3.47 0 0 0-.79-1.22 3.231 3.231 0 0 0-1.13-.722 3.952 3.952 0 0 0-1.364-.24zm-68.267-5.141A10.692 10.692 0 0 1 29.386 40v.555L7.949 46.13A10.643 10.643 0 0 1 6 40v-.666l21.437-5.557zm38.87 4.882a3.273 3.273 0 0 0-1.248.231c-.365.14-.696.347-.974.61a3.32 3.32 0 0 0-.624.925c-.027.086-.05.172-.068.26l.02-.01h5.924a2.458 2.458 0 0 0-.682-1.211 2.86 2.86 0 0 0-.975-.583 3.755 3.755 0 0 0-1.14-.22l-.234-.002zm-51.7-9.354c3.206-.835 6.635-.335 9.43 1.374l-16.8 4.374c1.484-2.823 4.164-4.914 7.37-5.748z" fill="#FF671F"/></svg>
